X: 20272
P: "Repeat 8va"
Q: "Lively dancing time."
M: 2/4
L: 1/16
K: Bb
(d3e/d/) c2d2 | (e3f/e/) d2e2 | f2 f4 b2 | (ba)(ag) (gf)(fe) |\
(d3e/d/) c2d2 | (e3f/e/) d2e2 | (g2fd) (f2ec) | B2B2B2 :|


